storage/app/icons/phosphoricons/fill/high-definition-fill.svg

<svg xmlns="http://www.w3.org/2000/svg" fill="currentColor" viewBox="0 0 256 256"><path d="M196 128a32 32 0 0 1-32 32h-12V96h12a32 32 0 0 1 32 32m36-72v144a16 16 0 0 1-16 16H40a16 16 0 0 1-16-16V56a16 16 0 0 1 16-16h176a16 16 0 0 1 16 16M120 88a8 8 0 0 0-16 0v32H64V88a8 8 0 0 0-16 0v80a8 8 0 0 0 16 0v-32h40v32a8 8 0 0 0 16 0Zm92 40a48.05 48.05 0 0 0-48-48h-20a8 8 0 0 0-8 8v80a8 8 0 0 0 8 8h20a48.05 48.05 0 0 0 48-48"/></svg>

<svg xmlns="http://www.w3.org/2000/svg" viewBox="0 0 256 256" fill="currentColor"><path d="M196,128a32,32,0,0,1-32,32H152V96h12A32,32,0,0,1,196,128Zm36-72V200a16,16,0,0,1-16,16H40a16,16,0,0,1-16-16V56A16,16,0,0,1,40,40H216A16,16,0,0,1,232,56ZM120,88a8,8,0,0,0-16,0v32H64V88a8,8,0,0,0-16,0v80a8,8,0,0,0,16,0V136h40v32a8,8,0,0,0,16,0Zm92,40a48.05,48.05,0,0,0-48-48H144a8,8,0,0,0-8,8v80a8,8,0,0,0,8,8h20A48.05,48.05,0,0,0,212,128Z"/></svg>
